src/img/video-icon.svg

<svg width="124" height="120" viewBox="0 0 124 120" fill="none" xmlns="http://www.w3.org/2000/svg">
<g clip-path="url(#clip0)">
<path d="M2.56521 83.9137L0.252586 76.8901L8.09972 76.9402L59.4274 47.3945C61.5594 46.167 64.1866 46.167 66.3174 47.3945L118.869 77.644L125.493 77.6858L124.475 83.291C124.481 83.384 124.481 83.4771 124.475 83.5701C124.43 84.2715 124.059 84.9562 123.361 85.357L65.383 118.64C64.6066 119.087 63.7404 119.31 62.873 119.31C62.0056 119.31 61.1394 119.087 60.3618 118.64L3.67905 85.9868C2.98394 85.5872 2.61187 84.9061 2.56521 84.2059V84.1987C2.55803 84.1057 2.55923 84.0103 2.56521 83.9137Z" fill="#E3DFEA"/>
<path d="M62.8731 109.558V113.599C63.7405 113.599 64.6067 113.376 65.3831 112.929L124.38 78.9668C125.125 78.5374 125.498 77.7859 125.498 77.0344V73.1385H125.494C125.448 73.8399 125.077 74.5246 124.38 74.9254L65.3831 108.886C64.6067 109.334 63.7405 109.558 62.8731 109.558Z" fill="#327A83"/>
<path d="M1.36646 78.9668L60.3618 112.927C61.1383 113.375 62.0057 113.598 62.873 113.598V109.556C62.0057 109.556 61.1395 109.333 60.3618 108.886L1.36646 74.9255C0.67136 74.5259 0.29929 73.8447 0.252628 73.1445V76.8901C0.201183 77.6881 0.57206 78.51 1.36646 78.9668Z" fill="#327A83"/>
<path d="M0.252586 73.1385V73.1457C0.299248 73.8447 0.671318 74.527 1.36642 74.9266L60.3618 108.887C61.1382 109.334 62.0056 109.558 62.873 109.558C63.7404 109.558 64.6066 109.334 65.383 108.887L124.38 74.9266C125.077 74.5258 125.448 73.8411 125.493 73.1397H120.966L66.3174 41.6818C64.1854 40.4544 61.5582 40.4544 59.4274 41.6818L4.77853 73.1397H0.252586V73.1385Z" fill="#7B5BAA"/>
<path d="M0.252472 73.1385V73.1456C0.299126 73.8446 0.671196 74.5269 1.3663 74.9265L60.3616 108.887C61.1381 109.334 62.0055 109.557 62.8729 109.557C63.7403 109.557 64.6065 109.334 65.3829 108.887L124.379 74.9265C125.077 74.5257 125.448 73.841 125.493 73.1396C125.544 72.3416 125.174 71.5197 124.379 71.0629L66.3173 37.6415C64.1853 36.4141 61.558 36.4141 59.4273 37.6415L1.3663 71.0629C0.571899 71.5186 0.201027 72.3404 0.252472 73.1385Z" fill="#49A9B4"/>
<path d="M62.873 113.822C63.793 113.822 64.6999 113.58 65.4955 113.122L124.492 79.1612C125.263 78.7175 125.722 77.923 125.722 77.0343V73.0132C125.722 72.9989 125.722 72.9846 125.722 72.9703L125.721 72.9142C125.694 72.0661 125.237 71.2967 124.492 70.8673L66.4299 37.4447C64.2357 36.1815 61.5091 36.1815 59.3149 37.4447L1.25395 70.8673C0.439209 71.3361 -0.0297775 72.2092 0.0276489 73.1456V76.8828C-0.0309753 77.8192 0.439209 78.6912 1.25395 79.16L60.2493 113.121C61.0461 113.58 61.953 113.822 62.873 113.822ZM125.273 73.3627V77.0343C125.273 77.7608 124.898 78.4109 124.267 78.7723L65.2706 112.733C64.5432 113.152 63.7141 113.373 62.873 113.373C62.0319 113.373 61.2028 113.152 60.4742 112.733L1.47887 78.7723C0.811287 78.3882 0.427246 77.6725 0.476295 76.9043V76.89V73.6216L0.562431 73.5953C0.515778 73.4462 0.487068 73.2924 0.476295 73.1361V73.123C0.426048 72.3548 0.810089 71.6379 1.47887 71.2538L59.5398 37.8312C61.5952 36.6479 64.1507 36.6479 66.2061 37.8312L124.267 71.255C124.934 71.6391 125.318 72.3548 125.268 73.1242L125.253 73.3615H125.273V73.3627ZM62.873 109.781V109.333C62.4578 109.333 62.0427 109.28 61.6407 109.173L61.5258 109.606C61.9649 109.722 62.4184 109.781 62.873 109.781Z" fill="#49A9B4"/>
<path d="M43.2535 63.4716C43.7093 63.1627 44.189 62.8621 44.6951 62.571C54.8824 56.707 71.3998 56.707 81.5871 62.571C82.0932 62.8621 82.573 63.1627 83.0288 63.4716H89.2273V73.1898C89.2273 77.0332 86.6802 80.8754 81.5871 83.8086C71.3998 89.6727 54.8824 89.6727 44.6951 83.8086C39.6009 80.8766 37.0549 77.0332 37.0549 73.1898V63.4716H43.2535Z" fill="#327A83"/>
<path d="M63.1411 78.4886C48.7341 78.4886 37.0549 71.7653 37.0549 63.4718C37.0549 55.1782 48.7341 48.455 63.1411 48.455C77.5481 48.455 89.2273 55.1782 89.2273 63.4718C89.2273 71.7653 77.5481 78.4886 63.1411 78.4886Z" fill="url(#paint0_linear)"/>
<path d="M81.587 52.8541V74.0893C87.1921 70.8626 89.7128 66.5338 89.1493 62.3134C88.6899 58.8649 86.1679 55.4915 81.587 52.8541Z" fill="#49A9B4"/>
<path opacity="0.3" d="M44.6951 4.46485V52.8541C54.8823 46.9889 71.3997 46.9889 81.5882 52.8541V25.7012C86.1692 23.0638 88.6912 19.6892 89.1506 16.2407C89.2535 15.4701 89.2535 14.6971 89.1506 13.9277C88.6924 10.478 86.1704 7.10225 81.5882 4.46366C71.3997 -1.39922 54.8823 -1.39922 44.6951 4.46485Z" fill="#49A9B4"/>
<path opacity="0.5" d="M81.587 25.7011V52.8541C86.168 55.4915 88.69 58.8649 89.1494 62.3146V16.2418C88.69 19.6892 86.168 23.0637 81.587 25.7011Z" fill="#49A9B4"/>
<path d="M37.9964 41.4146C38.152 41.4146 38.2776 41.2893 38.2776 41.1342V21.9579C38.2776 21.8029 38.152 21.6776 37.9964 21.6776C37.8409 21.6776 37.7153 21.8029 37.7153 21.9579V41.1342C37.7153 41.2893 37.8421 41.4146 37.9964 41.4146Z" fill="#FF2639"/>
<path d="M37.9964 59.7428C38.152 59.7428 38.2776 59.6176 38.2776 59.4625V46.1479C38.2776 45.9928 38.152 45.8676 37.9964 45.8676C37.8409 45.8676 37.7153 45.9928 37.7153 46.1479V59.4625C37.7153 59.6176 37.8421 59.7428 37.9964 59.7428Z" fill="#FF2639"/>
<path d="M47.2457 59.7429C47.4012 59.7429 47.5269 59.6176 47.5269 59.4626V42.3702C47.5269 42.2151 47.4012 42.0898 47.2457 42.0898C47.0902 42.0898 46.9645 42.2151 46.9645 42.3702V59.4626C46.9645 59.6176 47.0914 59.7429 47.2457 59.7429Z" fill="#FF2639"/>
<path d="M47.2457 75.6614C47.4012 75.6614 47.5269 75.5362 47.5269 75.3811V67.5107C47.5269 67.3556 47.4012 67.2303 47.2457 67.2303C47.0902 67.2303 46.9645 67.3556 46.9645 67.5107V75.3811C46.9645 75.5362 47.0914 75.6614 47.2457 75.6614Z" fill="#FF2639"/>
<path d="M71.5624 57.4025C71.7179 57.4025 71.8435 57.2772 71.8435 57.1221V52.6477C71.8435 52.4927 71.7179 52.3674 71.5624 52.3674C71.4068 52.3674 71.2812 52.4927 71.2812 52.6477V57.1221C71.2812 57.276 71.408 57.4025 71.5624 57.4025Z" fill="#BBE6EA"/>
<path d="M71.5624 77.9671C71.7179 77.9671 71.8435 77.8419 71.8435 77.6868V62.8692C71.8435 62.7141 71.7179 62.5889 71.5624 62.5889C71.4068 62.5889 71.2812 62.7141 71.2812 62.8692V77.6856C71.2812 77.8419 71.408 77.9671 71.5624 77.9671Z" fill="#FF2639"/>
<path d="M61.3268 32.2533L61.252 31.3434L64.3074 31.3624C64.3642 31.362 64.422 31.3623 64.4793 31.3635L64.482 31.3637C67.1442 31.4251 69.9359 33.3912 72.1227 37.1714C76.1869 44.1982 76.6222 54.8295 73.0946 60.9192C71.6139 63.4751 69.6703 64.8235 67.6131 65.0095L67.612 65.0089C67.3066 65.0357 66.9989 65.0378 66.6895 65.0141L64.0167 65.0306L63.9438 64.1411C62.2967 63.214 60.7062 61.5671 59.3485 59.2204C55.2843 52.1937 54.849 41.5623 58.3767 35.4726C59.2285 34.0046 60.2341 32.9337 61.3268 32.2533Z" fill="#FFA94D"/>
<path d="M67.4961 32.4682C66.499 31.8944 65.4843 31.5918 64.4789 31.5686L64.4666 31.5684C64.4147 31.5675 64.3621 31.5676 64.307 31.5675L61.4756 31.5508L61.5318 32.2378L61.5414 32.3618L61.4356 32.4277C60.3406 33.1096 59.3715 34.17 58.5548 35.5799C55.0651 41.6038 55.5001 52.1654 59.5243 59.124C60.7973 61.3257 62.3363 62.9871 63.9754 63.9302C63.9982 63.9433 64.0209 63.9564 64.0427 63.969L64.1375 64.0221L64.1464 64.1306L64.2039 64.8321L66.6869 64.8165L66.6955 64.816L66.7035 64.8164C67.0011 64.8388 67.3002 64.8373 67.5917 64.8107L67.6079 64.809C69.3362 64.6472 70.9313 63.6356 72.2223 61.8813C72.2707 61.8168 72.3177 61.7501 72.3658 61.6813C72.5541 61.4134 72.739 61.1229 72.9144 60.82C73.2138 60.3032 73.4903 59.7401 73.7376 59.1465C73.7662 59.0803 73.7923 59.014 73.8199 58.9472C74.1358 58.1587 74.4049 57.3034 74.6216 56.4027C74.638 56.3363 74.6539 56.2683 74.6692 56.2013C74.8553 55.3892 75.0013 54.5319 75.1032 53.6506C75.1115 53.5838 75.1183 53.5174 75.1262 53.4489C75.2143 52.6176 75.2645 51.7589 75.2741 50.8962C75.2755 50.8295 75.2753 50.7632 75.2752 50.6942C75.2784 49.8499 75.2444 48.991 75.1724 48.1406C75.1668 48.074 75.1608 48.0058 75.1542 47.9385C75.0766 47.0835 74.9601 46.2241 74.8093 45.3835C74.7973 45.3159 74.7854 45.2484 74.7728 45.1819C74.6111 44.3171 74.41 43.4585 74.1738 42.6294C74.1538 42.5614 74.1349 42.494 74.1159 42.4266C73.8591 41.5498 73.5582 40.6917 73.2231 39.876C73.1956 39.8092 73.167 39.7417 73.1384 39.6743C72.781 38.8305 72.3806 38.0227 71.9457 37.2721C71.918 37.2245 71.8904 37.1769 71.8607 37.1281C71.8214 37.0601 71.7816 36.993 71.7411 36.927C71.1626 35.974 70.5326 35.1264 69.8701 34.4089L69.849 34.3857C69.7861 34.3179 69.7227 34.251 69.6586 34.1852C68.9689 33.4741 68.2415 32.8971 67.4961 32.4682ZM67.5985 32.2914C68.3512 32.7246 69.092 33.3093 69.8034 34.0425C69.8685 34.1089 69.9324 34.1774 69.9973 34.2464C70.6686 34.9703 71.3129 35.8289 71.9148 36.8203C71.9557 36.8879 71.9966 36.9555 72.0369 37.0242C72.0666 37.073 72.0947 37.1222 72.1238 37.172C72.5678 37.9402 72.968 38.7507 73.3255 39.5945C73.3541 39.6619 73.382 39.7304 73.4106 39.7978C73.7523 40.6284 74.0536 41.4881 74.3113 42.3682C74.3313 42.4362 74.3513 42.5042 74.3702 42.5716C74.6099 43.4137 74.8104 44.2733 74.9734 45.143C74.9864 45.2111 74.9984 45.2786 75.0114 45.3468C75.1653 46.1988 75.2801 47.0587 75.358 47.918C75.364 47.9862 75.37 48.0545 75.376 48.1227C75.448 48.9827 75.483 49.8422 75.4799 50.6935C75.4806 50.7614 75.4796 50.8298 75.4783 50.8965C75.4687 51.7661 75.419 52.6265 75.3292 53.4678C75.3223 53.5369 75.315 53.6044 75.306 53.6722C75.2052 54.5541 75.0601 55.4147 74.8691 56.2447C74.8532 56.3127 74.8373 56.3807 74.8213 56.4487C74.6053 57.3484 74.3352 58.2101 74.011 59.02C73.9838 59.0884 73.9556 59.1562 73.9274 59.224C73.6799 59.8203 73.401 60.3875 73.0927 60.9198C72.913 61.2299 72.727 61.5225 72.534 61.796C72.4859 61.8648 72.4367 61.933 72.3871 61.9995C71.019 63.8584 69.3569 64.8521 67.6111 65.0107L67.6101 65.0101C67.3046 65.0369 66.9969 65.039 66.687 65.0164L64.0143 65.0331L63.9415 64.1436C63.9187 64.1305 63.8949 64.1168 63.8721 64.1037C62.2497 63.1701 60.6848 61.5366 59.3468 59.2231C55.2833 52.1965 54.8495 41.5638 58.3769 35.4747C59.2289 34.0039 60.2351 32.9318 61.3273 32.2524L61.2525 31.3425L64.3077 31.3613C64.3646 31.3609 64.4224 31.3611 64.4807 31.3629L64.4834 31.3631C65.5165 31.3884 66.5693 31.6992 67.5985 32.2914Z" fill="#FFE499"/>
<path d="M53.2083 49.3585C52.0797 40.0864 55.4353 32.049 60.7033 31.4063C65.9713 30.7637 71.1569 37.7592 72.2855 47.0313C73.4142 56.3033 70.0585 64.3408 64.7905 64.9834C59.5225 65.6261 54.337 58.6306 53.2083 49.3585Z" fill="#FFD071"/>
<path d="M53.2083 49.3585C52.0797 40.0864 55.4353 32.049 60.7033 31.4063C65.9713 30.7637 71.1569 37.7592 72.2855 47.0313C73.4142 56.3033 70.0585 64.3408 64.7905 64.9834C59.5225 65.6261 54.337 58.6306 53.2083 49.3585Z" fill="#FFE499"/>
<path d="M56.883 57.6689C58.6007 60.6377 60.7948 62.4266 63.0636 62.7068C65.3314 62.9863 67.4022 61.7233 68.8932 59.1496C70.3841 56.5759 71.1163 53.0004 70.9568 49.0815C70.7973 45.1625 69.7632 41.3688 68.0455 38.4C66.3278 35.4312 64.1337 33.6422 61.8649 33.362C59.5971 33.0825 57.5263 34.3455 56.0353 36.9192C54.5444 39.493 53.8122 43.0684 53.9717 46.9873C54.1322 50.9069 55.1663 54.7007 56.883 57.6689ZM67.7377 38.9312C71.0877 44.7232 71.447 53.5187 68.5387 58.5391C65.6304 63.5594 60.5395 62.9316 57.1896 57.1397C53.8396 51.3477 53.4804 42.5522 56.3887 37.5319C59.298 32.5121 64.3888 33.1399 67.7377 38.9312Z" fill="white"/>
<path d="M67.8641 36.8266L67.8635 37.0303L72.0298 37.0277C71.9895 36.959 71.9492 36.8903 71.9077 36.8237L67.8641 36.8266Z" fill="#FFE499"/>
<path d="M69.9377 39.6012L69.9371 39.8048L73.4061 39.8021C73.3781 39.7336 73.3495 39.6661 73.3209 39.5987L69.9377 39.6012Z" fill="#FFE499"/>
<path d="M70.8945 42.3765L70.895 42.5808L74.3682 42.5777C74.3482 42.5097 74.3293 42.4423 74.3093 42.3743L70.8945 42.3765Z" fill="#FFE499"/>
<path d="M71.8505 45.1512L71.8499 45.3549L75.0096 45.3521C74.9976 45.2845 74.9852 45.2153 74.9716 45.1482L71.8505 45.1512Z" fill="#FFE499"/>
<path d="M71.6915 47.9262L71.6909 48.1299L75.378 48.1272C75.373 48.0596 75.3659 47.9907 75.3599 47.9224L71.6915 47.9262Z" fill="#FFE499"/>
<path d="M71.0065 50.7152L71.0059 50.9189L75.4807 50.9008C75.4816 50.8324 75.482 50.7651 75.4823 50.6977L71.0065 50.7152Z" fill="#FFE499"/>
<path d="M71.2266 53.4768L71.226 53.6805L75.3124 53.6774C75.3203 53.6089 75.3276 53.5414 75.3355 53.4729L71.2266 53.4768Z" fill="#FFE499"/>
<path d="M70.3109 56.2514L70.3113 56.4557L74.8286 56.4524C74.8456 56.3849 74.8604 56.3163 74.8764 56.2483L70.3109 56.2514Z" fill="#FFE499"/>
<path d="M69.8715 59.0258L69.8709 59.2294L73.9363 59.2267C73.9645 59.1588 73.9928 59.091 74.02 59.0226L69.8715 59.0258Z" fill="#FFE499"/>
<path d="M68.0915 61.8015L68.0909 62.0052L72.3997 62.0019C72.4493 61.9353 72.4985 61.8671 72.5466 61.7983L68.0915 61.8015Z" fill="#FFE499"/>
<path d="M65.9332 34.0469L65.9326 34.2506L69.9875 34.2472C69.9225 34.1782 69.8586 34.1097 69.7935 34.0433L65.9332 34.0469Z" fill="#FFE499"/>
<path d="M58.2215 42.0004L59.6359 43.5931C60.1013 42.9374 60.7071 42.4988 61.4173 42.3828C63.4001 42.059 65.4338 44.349 65.951 47.4879C66.3983 50.2026 65.5645 52.6744 64.0489 53.5033L64.4627 56.0148C66.8384 55.0139 68.1813 51.3144 67.5089 47.2334C66.7677 42.7347 63.8525 39.4507 61.0107 39.9149C59.8697 40.1029 58.9124 40.8655 58.2215 42.0004Z" fill="#FFA94D"/>
<path d="M58.9575 48.7384C58.7748 47.6288 58.8017 46.565 58.9914 45.6381L57.6525 44.0586C57.2821 45.4908 57.2038 47.1957 57.4971 48.9771C58.16 53.0033 60.4931 56.0583 62.9092 56.2683L62.5011 53.7895C60.9009 53.4773 59.3986 51.4177 58.9575 48.7384Z" fill="#FFA94D"/>
<path d="M60.2339 48.5372C60.5808 50.6424 61.8854 52.1885 63.1427 51.9831C64.399 51.778 65.1391 49.8979 64.7923 47.7927C64.4454 45.6876 63.1408 44.1414 61.8844 44.3466C60.6281 44.5518 59.887 46.4321 60.2339 48.5372ZM64.1523 47.8972C63.5791 48.6641 63.1692 49.7054 62.966 50.9108C62.3867 49.8332 61.6641 48.9769 60.8748 48.4325C61.4481 47.6657 61.858 46.6244 62.0611 45.419C62.6395 46.4968 63.3621 47.3531 64.1523 47.8972Z" fill="#FFA94D"/>
</g>
<defs>
<linearGradient id="paint0_linear" x1="89.2273" y1="63.4719" x2="37.0543" y2="63.4719" gradientUnits="userSpaceOnUse">
<stop stop-color="#49A9B4"/>
<stop offset="1" stop-color="#327A83"/>
</linearGradient>
<clipPath id="clip0">
<rect width="125.698" height="119.246" fill="white" transform="matrix(-1 0 0 1 125.722 0.0667725)"/>
</clipPath>
</defs>
</svg>

<svg width="124" height="120" viewBox="0 0 124 120" fill="none" xmlns="http://www.w3.org/2000/svg"><g clip-path="url(#clip0)"><path d="M2.565 83.914L.253 76.89l7.847.05 51.327-29.545a6.906 6.906 0 016.89 0l52.552 30.249 6.624.042-1.018 5.605a2.204 2.204 0 01-1.114 2.066L65.383 118.64a5.033 5.033 0 01-5.021 0L3.679 85.987a2.205 2.205 0 01-1.114-1.781v-.007a2.06 2.06 0 010-.285z" fill="#E3DFEA"/><path d="M62.873 109.558v4.041c.867 0 1.734-.223 2.51-.67l58.997-33.962a2.21 2.21 0 001.118-1.933v-3.896h-.004a2.209 2.209 0 01-1.114 1.787l-58.997 33.961a5.018 5.018 0 01-2.51.672z" fill="#327A83"/><path d="M1.366 78.967l58.996 33.96a5.021 5.021 0 002.511.671v-4.042a5.034 5.034 0 01-2.511-.67L1.366 74.926a2.205 2.205 0 01-1.113-1.782v3.746a2.21 2.21 0 001.113 2.077z" fill="#327A83"/><path d="M.253 73.138v.008a2.207 2.207 0 001.113 1.78l58.996 33.961a5.031 5.031 0 005.021 0l58.997-33.96a2.205 2.205 0 001.113-1.787h-4.527L66.317 41.682a6.906 6.906 0 00-6.89 0L4.78 73.14H.253v-.002z" fill="#7B5BAA"/><path d="M.252 73.138v.008a2.207 2.207 0 001.114 1.78l58.996 33.961a5.03 5.03 0 005.02 0l58.997-33.96a2.204 2.204 0 001.114-1.787 2.21 2.21 0 00-1.114-2.077L66.317 37.64a6.906 6.906 0 00-6.89 0L1.367 71.064a2.207 2.207 0 00-1.115 2.075z" fill="#49A9B4"/><path d="M62.873 113.822c.92 0 1.827-.242 2.623-.7l58.996-33.96a2.427 2.427 0 001.23-2.128V72.97l-.001-.056a2.442 2.442 0 00-1.229-2.047L66.43 37.445a7.153 7.153 0 00-7.115 0L1.254 70.867a2.44 2.44 0 00-1.226 2.279v3.737a2.437 2.437 0 001.226 2.277l58.995 33.961a5.262 5.262 0 002.624.701zm62.4-40.46v3.672a1.98 1.98 0 01-1.006 1.738l-58.996 33.961a4.81 4.81 0 01-4.797 0L1.48 78.773a1.995 1.995 0 01-1.003-1.869v-3.282l.086-.027a1.995 1.995 0 01-.086-.459v-.013a1.993 1.993 0 011.003-1.87l58.06-33.422a6.703 6.703 0 016.667 0l58.061 33.424a1.994 1.994 0 011.001 1.87l-.015.237h.02zm-62.4 36.419v-.448c-.415 0-.83-.053-1.232-.16l-.115.433c.439.116.892.175 1.347.175z" fill="#49A9B4"/><path d="M43.254 63.472c.455-.31.935-.61 1.441-.901 10.187-5.864 26.705-5.864 36.892 0 .506.291.986.592 1.442.9h6.198v9.719c0 3.843-2.547 7.685-7.64 10.619-10.187 5.864-26.705 5.864-36.892 0-5.094-2.932-7.64-6.776-7.64-10.62v-9.717h6.199z" fill="#327A83"/><path d="M63.141 78.489c-14.407 0-26.086-6.724-26.086-15.017 0-8.294 11.68-15.017 26.086-15.017 14.407 0 26.086 6.723 26.086 15.017 0 8.293-11.679 15.017-26.086 15.017z" fill="url(#paint0_linear)"/><path d="M81.587 52.854V74.09c5.605-3.226 8.126-7.555 7.562-11.776-.46-3.448-2.981-6.822-7.562-9.459z" fill="#49A9B4"/><path opacity=".3" d="M44.695 4.465v48.39c10.187-5.866 26.705-5.866 36.893 0V25.7c4.581-2.637 7.103-6.012 7.563-9.46a8.704 8.704 0 000-2.313c-.459-3.45-2.98-6.826-7.563-9.464C71.4-1.4 54.882-1.4 44.695 4.464z" fill="#49A9B4"/><path opacity=".5" d="M81.587 25.701v27.153c4.581 2.638 7.103 6.01 7.562 9.46V16.243c-.459 3.447-2.981 6.822-7.562 9.46z" fill="#49A9B4"/><path d="M37.996 41.415a.28.28 0 00.282-.28V21.957a.28.28 0 00-.282-.28.28.28 0 00-.28.28v19.176c0 .155.126.28.28.28zm0 18.328a.28.28 0 00.282-.28V46.148a.28.28 0 00-.282-.28.28.28 0 00-.28.28v13.314c0 .156.126.28.28.28zm9.25 0a.28.28 0 00.28-.28V42.37a.28.28 0 00-.562 0v17.093c0 .155.127.28.282.28zm0 15.918a.28.28 0 00.28-.28v-7.87a.28.28 0 00-.562 0v7.87c0 .155.127.28.282.28z" fill="#FF2639"/><path d="M71.562 57.403a.28.28 0 00.282-.28v-4.475a.28.28 0 00-.282-.28.28.28 0 00-.28.28v4.474c0 .154.126.28.28.28z" fill="#BBE6EA"/><path d="M71.562 77.967a.28.28 0 00.282-.28V62.869a.28.28 0 00-.282-.28.28.28 0 00-.28.28v14.817a.28.28 0 00.28.281z" fill="#FF2639"/><path d="M61.327 32.253l-.075-.91 3.055.02h.175c2.662.062 5.454 2.028 7.64 5.808 4.065 7.027 4.5 17.659.973 23.748-1.481 2.556-3.425 3.904-5.482 4.09h-.001a5.624 5.624 0 01-.922.005l-2.673.017-.073-.89c-1.647-.927-3.238-2.574-4.596-4.92-4.064-7.027-4.499-17.659-.971-23.748.851-1.468 1.857-2.54 2.95-3.22z" fill="#FFA94D"/><path d="M67.496 32.468c-.997-.574-2.012-.876-3.017-.9h-.172l-2.831-.017.056.687.01.124-.106.066c-1.095.682-2.065 1.742-2.881 3.152-3.49 6.024-3.055 16.585.97 23.544 1.272 2.202 2.811 3.863 4.45 4.806l.068.039.094.053.01.109.057.701 2.483-.015.008-.001h.009c.297.023.596.021.888-.005l.016-.002c1.728-.162 3.323-1.173 4.614-2.928a11.713 11.713 0 00.692-1.061c.3-.517.576-1.08.824-1.673l.082-.2a18.502 18.502 0 00.85-2.746c.185-.812.331-1.67.433-2.55.009-.067.015-.134.023-.202.088-.831.138-1.69.148-2.553l.001-.202a29.084 29.084 0 00-.12-2.756 29.767 29.767 0 00-.346-2.555l-.036-.201a28.413 28.413 0 00-.6-2.553l-.057-.202a25.887 25.887 0 00-.978-2.753 21.645 21.645 0 00-1.192-2.402l-.085-.144a15.802 15.802 0 00-1.99-2.72l-.022-.022a11.34 11.34 0 00-.19-.2 9.977 9.977 0 00-2.163-1.718zm.103-.177c.752.434 1.493 1.018 2.204 1.752.066.066.13.134.194.203a15.952 15.952 0 011.918 2.574l.122.204c.03.049.058.098.087.148.444.768.844 1.579 1.202 2.422l.085.204a25.871 25.871 0 01.96 2.774c.239.842.44 1.701.602 2.571l.038.204c.154.852.27 1.712.347 2.571l.018.205a29.558 29.558 0 01.102 2.774 27.079 27.079 0 01-.172 2.775c-.1.882-.246 1.743-.437 2.573l-.048.204a18.63 18.63 0 01-.894 2.775 14.393 14.393 0 01-.834 1.696 11.655 11.655 0 01-.706 1.08c-1.368 1.858-3.03 2.852-4.776 3.01a5.756 5.756 0 01-.924.006l-2.673.017-.072-.89-.07-.04c-1.622-.933-3.187-2.566-4.525-4.88-4.064-7.026-4.498-17.66-.97-23.748.852-1.471 1.858-2.543 2.95-3.223l-.075-.91 3.056.02h.173l.002.001c1.033.025 2.086.336 3.115.928z" fill="#FFE499"/><path d="M53.208 49.358c-1.128-9.272 2.227-17.309 7.495-17.952 5.268-.642 10.454 6.353 11.582 15.625 1.13 9.272-2.227 17.31-7.495 17.952-5.268.643-10.453-6.352-11.582-15.625z" fill="#FFD071"/><path d="M53.208 49.358c-1.128-9.272 2.227-17.309 7.495-17.952 5.268-.642 10.454 6.353 11.582 15.625 1.13 9.272-2.227 17.31-7.495 17.952-5.268.643-10.453-6.352-11.582-15.625z" fill="#FFE499"/><path d="M56.883 57.669c1.718 2.969 3.912 4.758 6.18 5.038 2.268.28 4.34-.984 5.83-3.557 1.491-2.574 2.223-6.15 2.064-10.069-.16-3.919-1.194-7.712-2.911-10.681-1.718-2.969-3.912-4.758-6.181-5.038-2.268-.28-4.339.983-5.83 3.557-1.49 2.574-2.223 6.15-2.063 10.068.16 3.92 1.194 7.714 2.911 10.682zM67.738 38.93c3.35 5.792 3.709 14.588.8 19.608-2.908 5.02-7.998 4.393-11.348-1.4-3.35-5.791-3.71-14.587-.801-19.607s8-4.392 11.349 1.4z" fill="#fff"/><path d="M67.864 36.827v.203l4.166-.002a8.938 8.938 0 00-.122-.204l-4.044.003zm2.074 2.774v.204l3.468-.003a16.568 16.568 0 00-.085-.203l-3.383.002zm.956 2.776l.001.204 3.473-.003-.059-.204-3.415.002zm.956 2.774v.204l3.16-.003a8.615 8.615 0 00-.038-.204l-3.121.003zm-.158 2.775l-.001.204 3.687-.003-.018-.205-3.668.004zm-.685 2.789l-.001.204 4.475-.018.001-.203-4.475.017zm.22 2.762l-.001.204 4.086-.004.023-.204-4.108.004zm-.917 2.774l.001.205 4.518-.004c.017-.067.031-.136.047-.204l-4.565.003zm-.439 2.775v.203l4.065-.002.084-.204-4.148.003zm-1.78 2.775v.204l4.309-.003a7.55 7.55 0 00.147-.204l-4.456.003zm-2.158-27.754v.204l4.054-.004a9.343 9.343 0 00-.194-.204l-3.86.004z" fill="#FFE499"/><path d="M58.221 42l1.415 1.593c.465-.656 1.071-1.094 1.781-1.21 1.983-.324 4.017 1.966 4.534 5.105.447 2.715-.386 5.186-1.902 6.015l.414 2.512c2.375-1.001 3.718-4.7 3.046-8.782-.741-4.498-3.657-7.782-6.498-7.318-1.141.188-2.099.95-2.79 2.085zm.737 6.738a8.622 8.622 0 01.033-3.1l-1.338-1.58c-.37 1.433-.45 3.138-.156 4.92.663 4.025 2.996 7.08 5.412 7.29l-.408-2.479c-1.6-.312-3.102-2.371-3.543-5.05z" fill="#FFA94D"/><path d="M60.234 48.537c.347 2.105 1.651 3.651 2.909 3.446 1.256-.205 1.996-2.085 1.65-4.19-.348-2.105-1.652-3.652-2.909-3.446-1.256.205-1.997 2.085-1.65 4.19zm3.918-.64c-.573.767-.983 1.808-1.186 3.014-.58-1.078-1.302-1.934-2.091-2.479.573-.766.983-1.808 1.186-3.013.578 1.078 1.301 1.934 2.091 2.478z" fill="#FFA94D"/></g><defs><linearGradient id="paint0_linear" x1="89.227" y1="63.472" x2="37.054" y2="63.472" gradientUnits="userSpaceOnUse"><stop stop-color="#49A9B4"/><stop offset="1" stop-color="#327A83"/></linearGradient><clipPath id="clip0"><path fill="#fff" transform="matrix(-1 0 0 1 125.722 .067)" d="M0 0h125.698v119.246H0z"/></clipPath></defs></svg>
